X: 30016
T: Off She Goes
R: jig
M: 6/8
K: Dmajor
M:12/8
F2 A G2 B ABc d3|FAF G2 B AFD E2 D|
F2 A G2 B ABc d2 e|fed g2 f edc d3|
F/G/AF G2 B ABc d2 d|F/G/AF G2 B AFD E/F/ED|
F2 A GBG ABc d2 e|fed g z f ecA d3||
f3 def gfg efg|f z a d3 ecA A3|
faf def gfg efg|f z a g2 f ecA d3|
f3 def gfg efg|fgf dcd ecA A2 e|
faf def gfg efg|f z a g2 f ecA d3||

